svg/u1f340.svg

<svg viewBox="0 0 128 128" xmlns="http://www.w3.org/2000/svg">
  <path d="M68.55,55.14l-6.77,2.04c0,0,0.43,3.76-0.32,9.14c-0.75,5.37-2.26,13.97-0.75,25.26 c1.5,11.29,6.99,17.41,10.86,21.6c1.55,1.68,5.7,4.84,6.45,6.56c0.75,1.72,2.04,4.19,3.87,4.19s4.62-2.26,5.05-5.7 c0.43-3.44-5.05-3.01-10.86-9.35c-5.33-5.82-9.24-12.58-10-21.39c-0.75-8.81,0.43-17.3,0.97-20.64 C67.59,63.52,68.55,55.14,68.55,55.14z" fill="#65A21B"/>
  <path d="M77.03,5.63c2.27-1.13,9.71-2.91,14.65,2.1s3.72,11.25,4.94,12.14c1.21,0.89,8.66-0.57,13.84,4.61 s3.64,13.91,1.37,16.1c-2.27,2.19-24.44-13.51-24.44-13.51L77.03,5.63z" fill="#65A21B"/>
  <path d="M29.44,19.71c0,0,0.73-7.36,4.53-11.25c3.4-3.48,8.91-4.86,13.99-2.67 c6.56,2.83-7.11,23.63-7.11,23.63L16.41,41.48c0,0-5.75-7.8-0.16-15.94C21.02,18.58,29.44,19.71,29.44,19.71z" fill="#65A21B"/>
  <path d="M18.76,58.98c-2.35,1.46-7.25,8.49-2.6,15.93c4.05,6.47,9.79,6.31,9.79,6.31s-1.46,8.58,4.05,13.43 c5.34,4.71,14.02,3.16,16.53,1.62c2.99-1.83-5.2-26.38-5.2-26.38L18.76,58.98z" fill="#65A21B"/>
  <path d="M92.32,72.48c0,0-19.27,14.73-16.56,18.92c3.05,4.73,14.44,6.53,19.64,2.28 c6.23-5.1,4.05-10.28,5.1-11.49c1.05-1.21,5.83-1.38,8.09-6.23c2.27-4.86,1.78-10.67-1.06-14.15 C104.7,58.33,92.32,72.48,92.32,72.48z" fill="#65A21B"/>
  <path d="M63.18,43.37c3.32-0.24,1.59-9.05,1.86-16.11c0.45-11.81,3.71-15.71,6.71-18.52 c2.85-2.67,7.36-3.96,8.38-4.15c1.6-0.29,5.75,2.56,8,7.87c1.93,4.56,1.78,10.3,3.41,11.7s9.18-0.99,14.99,4.36 c5.81,5.35,5.77,10.21,5.77,11.29c0,1.08-3.56,5.5-9.61,7.32c-7.49,2.26-20.61,1.28-24.63,1.2s-7.05,0.31-6.97,2.09 c0.08,1.78,4.96,1.32,8.91,1.24s13.31,1.01,20.53,4.26c6.97,3.14,8.6,7.63,9.22,10.69c0.54,2.67-1.08,6.27-3.87,7.98 c-2.79,1.7-8.87,1.55-10.23,3.14c-1.86,2.17,0.85,8.99-5.5,13.17c-6.35,4.18-12.42,2.41-13.72,1.31c-4.87-4.14-6.04-9.4-6.97-17.23 c-0.93-7.82-1.55-16.19-4.96-16.19s-5.19,9.84-6.66,18.28s-5.35,18.24-13.71,20.1c-6.06,1.35-11.7-5.04-12.08-9.41 c-0.4-4.57,0.29-9.13-0.85-10.81c-1.39-2.05-8.39,0.02-12.55-6.31c-3.64-5.54-2.09-9.33-1.32-10.34c0.74-0.96,4.34-5.69,13.4-7.17 s26.26,1.12,26.49-2.09c0.23-3.21-13.94-2.67-18.59-2.67s-14.27,0.37-19.06-3.49c-3.64-2.94-4.72-5.9-4.94-6.83 c-0.35-1.45,0.63-7.91,5.89-11.12c6.54-4,11.76-1.25,13.31-2.33c1.55-1.08-1.24-6.32,3.34-13.01c3.56-5.19,9.71-6.2,10.46-5.89 c3.14,1.27,7.03,3.8,9.82,9.45s3.72,12.08,3.72,16.81S60.47,43.56,63.18,43.37z" fill="#8BC02B"/>
  <path d="M82.84,31.22c0,0,2.33-3.96-0.51-5.81c-3.29-2.14-5.75,1.31-5.75,1.31s-0.38-2.81-3.19-2.84 c-2.01-0.02-3.13,1.92-3.22,5.27c-0.1,3.35,0.67,4.64,2.3,4.98c2.27,0.48,3.1-1.5,3.1-1.5s-0.03,1.56,1.53,2.65 c1.56,1.09,3.19-0.26,3.19-0.26s-1.4,2.11-0.19,3.42c0.99,1.06,2.71,0.35,2.71,0.35s-2.91,2.62-1.6,4.37 c1.31,1.76,4.09,1.79,5.97,1.28c1.88-0.51,4.28-2.39,3.83-5.4s-5.24-2.38-5.24-2.38s2.59-3.14,1.12-4.95 C85.17,29.57,82.84,31.22,82.84,31.22z" fill="#BDCE46"/>
  <path d="M84.17,55.91c-0.51,1.42,1.28,3.17,1.28,3.17s-1.43,0.08-1.9,1.08s0.12,2.4,0.12,2.4 s-2.53-1.51-4.53-0.08c-1.78,1.28-1.01,4.18-1.01,4.18s-1.82-2.13-4.18-0.89c-1.63,0.85-1.78,3.91-1.35,6.35 c0.43,2.44,1.94,5.03,4.57,4.53s2.36-5.77,2.36-5.77s3.68,3.74,6.23,1.51c2.13-1.86,0.5-4.57,0.5-4.57s1.2,0.5,2.13-0.39 c0.93-0.89,0.08-2.32,0.08-2.32s3.29,1.43,4.03-0.89s-1.7-3.48-1.7-3.48s1.59,0.19,1.39-1.97C91.97,56.4,85.56,52,84.17,55.91z" fill="#BDCE46"/>
  <path d="M47.02,64.44c0,0,1.26-1.23,0.75-3.89c-0.63-3.26-5.14-4.14-6.89-4.01c-1.75,0.13-3.89,0.5-3.82,2.95 c0.05,1.82,1.63,2.26,1.63,2.26s-1.75,1.03-1.25,3.2c0.75,3.26,6.02,2.26,6.02,2.26s-3.26,2.82-1.38,5.58 c1.88,2.76,5.45,0.63,5.45,0.63s-1.06,2.96,1.07,3.76c2.01,0.75,3.67-0.66,4.89-3.13c1.17-2.37,1.33-6.15-0.63-8.02 C50.03,63.31,47.02,64.44,47.02,64.44z" fill="#BDCE46"/>
  <path d="M45.72,26.2c-2.6,1.88-1.38,5.51-1.38,5.51s-2.38-0.5-3.01,1.19c-0.63,1.69,0.94,2.51,0.94,2.51 s-2.32-0.56-2.82,1.32c-0.5,1.88,1.19,2.69,1.19,2.69s-2.43,0.32-2.63,2.88c-0.13,1.57,1.25,3.89,5.01,3.95 c3.76,0.06,5.51-0.25,5.64-2.07c0.13-1.82-1.88-2.69-1.88-2.69s1.64-0.31,1.69-2.01c0.06-2.26-2.01-3.07-2.01-3.07 s2.56,1.26,4.57,0.19c2.82-1.5,1.5-4.57,1.5-4.57s0.94,2.63,3.01,2.26c1.59-0.29,2.95-2.13,2.69-5.45s-1.75-4.28-3.32-4.32 c-2.07-0.06-2.82,2.82-2.82,2.82S49.36,23.57,45.72,26.2z" fill="#BDCE46"/>
</svg>

<svg viewBox="0 0 128 128" xmlns="http://www.w3.org/2000/svg">
  <defs/>
  <path d="M68.55,55.14 L61.78,57.18 C61.78,57.18 62.21,60.94 61.46,66.32 C60.71,71.69 59.2,80.29 60.71,91.58 C62.21,102.87 67.7,108.99 71.57,113.18 C73.12,114.86 77.27,118.02 78.02,119.74 C78.77,121.46 80.06,123.93 81.89,123.93 C83.72,123.93 86.51,121.67 86.94,118.23 C87.37,114.79 81.89,115.22 76.08,108.88 C70.75,103.06 66.84,96.3 66.08,87.49 C65.33,78.68 66.51,70.19 67.05,66.85 C67.59,63.52 68.55,55.14 68.55,55.14 Z" fill="#65A21B"/>
  <path d="M77.03,5.63 C79.3,4.5 86.74,2.72 91.68,7.73 C96.62,12.74 95.4,18.98 96.62,19.87 C97.83,20.76 105.28,19.3 110.46,24.48 C115.64,29.66 114.1,38.39 111.83,40.58 C109.56,42.77 87.39,27.07 87.39,27.07 L77.03,5.63 Z" fill="#65A21B"/>
  <path d="M29.44,19.71 C29.44,19.71 30.17,12.35 33.97,8.46 C37.37,4.98 42.88,3.6 47.96,5.79 C54.52,8.62 40.85,29.42 40.85,29.42 L16.41,41.48 C16.41,41.48 10.66,33.68 16.25,25.54 C21.02,18.58 29.44,19.71 29.44,19.71 Z" fill="#65A21B"/>
  <path d="M18.76,58.98 C16.41,60.44 11.51,67.47 16.16,74.91 C20.21,81.38 25.95,81.22 25.95,81.22 C25.95,81.22 24.49,89.8 30,94.65 C35.34,99.36 44.02,97.81 46.53,96.27 C49.52,94.44 41.33,69.89 41.33,69.89 L18.76,58.98 Z" fill="#65A21B"/>
  <path d="M92.32,72.48 C92.32,72.48 73.05,87.21 75.76,91.4 C78.81,96.13 90.2,97.93 95.4,93.68 C101.63,88.58 99.45,83.4 100.5,82.19 C101.55,80.98 106.33,80.81 108.59,75.96 C110.86,71.1 110.37,65.29 107.53,61.81 C104.7,58.33 92.32,72.48 92.32,72.48 Z" fill="#65A21B"/>
  <path d="M63.18,43.37 C66.5,43.13 64.77,34.32 65.04,27.26 C65.49,15.45 68.75,11.55 71.75,8.74 C74.6,6.07 79.11,4.78 80.13,4.59 C81.73,4.3 85.88,7.15 88.13,12.46 C90.06,17.02 89.91,22.76 91.54,24.16 C93.17,25.56 100.72,23.17 106.53,28.52 C112.34,33.87 112.3,38.73 112.3,39.81 C112.3,40.89 108.74,45.31 102.69,47.13 C95.2,49.39 82.08,48.41 78.06,48.33 C74.04,48.25 71.01,48.64 71.09,50.42 C71.17,52.2 76.05,51.74 80,51.66 C83.95,51.58 93.31,52.67 100.53,55.92 C107.5,59.06 109.13,63.55 109.75,66.61 C110.29,69.28 108.67,72.88 105.88,74.59 C103.09,76.29 97.01,76.14 95.65,77.73 C93.79,79.9 96.5,86.72 90.15,90.9 C83.8,95.08 77.73,93.31 76.43,92.21 C71.56,88.07 70.39,82.81 69.46,74.98 C68.53,67.16 67.91,58.79 64.5,58.79 C61.09,58.79 59.31,68.63 57.84,77.07 C56.37,85.51 52.49,95.31 44.13,97.17 C38.07,98.52 32.43,92.13 32.05,87.76 C31.65,83.19 32.34,78.63 31.2,76.95 C29.81,74.9 22.81,76.97 18.65,70.64 C15.01,65.1 16.56,61.31 17.33,60.3 C18.07,59.34 21.67,54.61 30.73,53.13 C39.79,51.65 56.99,54.25 57.22,51.04 C57.45,47.83 43.28,48.37 38.63,48.37 C33.98,48.37 24.36,48.74 19.57,44.88 C15.93,41.94 14.85,38.98 14.63,38.05 C14.28,36.6 15.26,30.14 20.52,26.93 C27.06,22.93 32.28,25.68 33.83,24.6 C35.38,23.52 32.59,18.28 37.17,11.59 C40.73,6.4 46.88,5.39 47.63,5.7 C50.77,6.97 54.66,9.5 57.45,15.15 C60.24,20.8 61.17,27.23 61.17,31.96 C61.17,36.69 60.47,43.56 63.18,43.37 Z" fill="#8BC02B"/>
  <path d="M82.84,31.22 C82.84,31.22 85.17,27.26 82.33,25.41 C79.04,23.27 76.58,26.72 76.58,26.72 C76.58,26.72 76.2,23.91 73.39,23.88 C71.38,23.86 70.26,25.8 70.17,29.15 C70.07,32.5 70.84,33.79 72.47,34.13 C74.74,34.61 75.57,32.63 75.57,32.63 C75.57,32.63 75.54,34.19 77.1,35.28 C78.66,36.37 80.29,35.02 80.29,35.02 C80.29,35.02 78.89,37.13 80.1,38.44 C81.09,39.5 82.81,38.79 82.81,38.79 C82.81,38.79 79.9,41.41 81.21,43.16 C82.52,44.92 85.3,44.95 87.18,44.44 C89.06,43.93 91.46,42.05 91.01,39.04 C90.56,36.03 85.77,36.66 85.77,36.66 C85.77,36.66 88.36,33.52 86.89,31.71 C85.17,29.57 82.84,31.22 82.84,31.22 Z" fill="#BDCE46"/>
  <path d="M84.17,55.91 C83.66,57.33 85.45,59.08 85.45,59.08 C85.45,59.08 84.02,59.16 83.55,60.16 C83.08,61.16 83.67,62.56 83.67,62.56 C83.67,62.56 81.14,61.05 79.14,62.48 C77.36,63.76 78.13,66.66 78.13,66.66 C78.13,66.66 76.31,64.53 73.95,65.77 C72.32,66.62 72.17,69.68 72.6,72.12 C73.03,74.56 74.54,77.15 77.17,76.65 C79.8,76.15 79.53,70.88 79.53,70.88 C79.53,70.88 83.21,74.62 85.76,72.39 C87.89,70.53 86.26,67.82 86.26,67.82 C86.26,67.82 87.46,68.32 88.39,67.43 C89.32,66.54 88.47,65.11 88.47,65.11 C88.47,65.11 91.76,66.54 92.5,64.22 C93.24,61.9 90.8,60.74 90.8,60.74 C90.8,60.74 92.39,60.93 92.19,58.77 C91.97,56.4 85.56,52 84.17,55.91 Z" fill="#BDCE46"/>
  <path d="M47.02,64.44 C47.02,64.44 48.28,63.21 47.77,60.55 C47.14,57.29 42.63,56.41 40.88,56.54 C39.13,56.67 36.99,57.04 37.06,59.49 C37.11,61.31 38.69,61.75 38.69,61.75 C38.69,61.75 36.94,62.78 37.44,64.95 C38.19,68.21 43.46,67.21 43.46,67.21 C43.46,67.21 40.2,70.03 42.08,72.79 C43.96,75.55 47.53,73.42 47.53,73.42 C47.53,73.42 46.47,76.38 48.6,77.18 C50.61,77.93 52.27,76.52 53.49,74.05 C54.66,71.68 54.82,67.9 52.86,66.03 C50.03,63.31 47.02,64.44 47.02,64.44 Z" fill="#BDCE46"/>
  <path d="M45.72,26.2 C43.12,28.08 44.34,31.71 44.34,31.71 C44.34,31.71 41.96,31.21 41.33,32.9 C40.7,34.59 42.27,35.41 42.27,35.41 C42.27,35.41 39.95,34.85 39.45,36.73 C38.95,38.61 40.64,39.42 40.64,39.42 C40.64,39.42 38.21,39.74 38.01,42.3 C37.88,43.87 39.26,46.19 43.02,46.25 C46.78,46.31 48.53,46 48.66,44.18 C48.79,42.36 46.78,41.49 46.78,41.49 C46.78,41.49 48.42,41.18 48.47,39.48 C48.53,37.22 46.46,36.41 46.46,36.41 C46.46,36.41 49.02,37.67 51.03,36.6 C53.85,35.1 52.53,32.03 52.53,32.03 C52.53,32.03 53.47,34.66 55.54,34.29 C57.13,34 58.49,32.16 58.23,28.84 C57.97,25.52 56.48,24.56 54.91,24.52 C52.84,24.46 52.09,27.34 52.09,27.34 C52.09,27.34 49.36,23.57 45.72,26.2 Z" fill="#BDCE46"/>
</svg>
